dist/img/pages/service/advantages-card-icon-2.svg

<svg width="130" height="50" viewBox="0 0 130 50" fill="none" xmlns="http://www.w3.org/2000/svg">
<g clip-path="url(#clip0_7106_11231)">
<path opacity="0.4" d="M64.6757 0.933305C64.8626 0.774047 65.1374 0.774048 65.3243 0.933305L72.083 6.693C72.3232 6.89774 72.6219 7.02147 72.9366 7.04658L81.7884 7.75296C82.0332 7.77249 82.2275 7.96684 82.247 8.2116L82.9534 17.0634C82.9785 17.3781 83.1023 17.6768 83.307 17.917L89.0667 24.6757C89.226 24.8626 89.226 25.1374 89.0667 25.3243L83.307 32.083C83.1023 32.3232 82.9785 32.6219 82.9534 32.9366L82.247 41.7884C82.2275 42.0332 82.0332 42.2275 81.7884 42.247L72.9366 42.9534C72.6219 42.9785 72.3232 43.1023 72.083 43.307L65.3243 49.0667C65.1374 49.226 64.8626 49.226 64.6757 49.0667L57.917 43.307C57.6768 43.1023 57.3781 42.9785 57.0634 42.9534L48.2116 42.247C47.9668 42.2275 47.7725 42.0332 47.753 41.7884L47.0466 32.9366C47.0215 32.6219 46.8977 32.3232 46.693 32.083L40.9333 25.3243C40.774 25.1374 40.774 24.8626 40.9333 24.6757L46.693 17.917C46.8977 17.6768 47.0215 17.3781 47.0466 17.0634L47.753 8.2116C47.7725 7.96684 47.9668 7.77249 48.2116 7.75296L57.0634 7.04658C57.3781 7.02147 57.6768 6.89774 57.917 6.693L64.6757 0.933305Z" stroke="#2A2A2A"/>
<path opacity="0.2" d="M104.676 0.933305C104.863 0.774047 105.137 0.774048 105.324 0.933305L112.083 6.693C112.323 6.89774 112.622 7.02147 112.937 7.04658L121.788 7.75296C122.033 7.77249 122.228 7.96684 122.247 8.2116L122.953 17.0634C122.979 17.3781 123.102 17.6768 123.307 17.917L129.067 24.6757C129.226 24.8626 129.226 25.1374 129.067 25.3243L123.307 32.083C123.102 32.3232 122.979 32.6219 122.953 32.9366L122.247 41.7884C122.228 42.0332 122.033 42.2275 121.788 42.247L112.937 42.9534C112.622 42.9785 112.323 43.1023 112.083 43.307L105.324 49.0667C105.137 49.226 104.863 49.226 104.676 49.0667L97.917 43.307C97.6768 43.1023 97.3781 42.9785 97.0634 42.9534L88.2116 42.247C87.9668 42.2275 87.7725 42.0332 87.753 41.7884L87.0466 32.9366C87.0215 32.6219 86.8977 32.3232 86.693 32.083L80.9333 25.3243C80.774 25.1374 80.774 24.8626 80.9333 24.6757L86.693 17.917C86.8977 17.6768 87.0215 17.3781 87.0466 17.0634L87.753 8.2116C87.7725 7.96684 87.9668 7.77249 88.2116 7.75296L97.0634 7.04658C97.3781 7.02147 97.6768 6.89774 97.917 6.693L104.676 0.933305Z" stroke="#2A2A2A"/>
<path d="M24.3514 0.552747C24.7251 0.234233 25.2749 0.234234 25.6486 0.552748L32.4073 6.31244C32.5674 6.44893 32.7666 6.53142 32.9764 6.54816L41.8282 7.25454C42.3177 7.2936 42.7064 7.68231 42.7455 8.17182L43.4518 17.0236C43.4686 17.2334 43.5511 17.4326 43.6876 17.5927L49.4473 24.3514C49.7658 24.7251 49.7658 25.2749 49.4473 25.6486L43.6876 32.4073C43.5511 32.5674 43.4686 32.7666 43.4518 32.9764L42.7455 41.8282C42.7064 42.3177 42.3177 42.7064 41.8282 42.7455L32.9764 43.4518C32.7666 43.4686 32.5674 43.5511 32.4073 43.6876L25.6486 49.4473C25.2749 49.7658 24.7251 49.7658 24.3514 49.4473L17.5927 43.6876C17.4325 43.5511 17.2334 43.4686 17.0236 43.4518L8.17182 42.7455C7.68231 42.7064 7.2936 42.3177 7.25454 41.8282L6.54816 32.9764C6.53142 32.7666 6.44893 32.5674 6.31244 32.4073L0.552747 25.6486C0.234233 25.2749 0.234234 24.7251 0.552748 24.3514L6.31244 17.5927C6.44894 17.4325 6.53142 17.2334 6.54816 17.0236L7.25454 8.17182C7.2936 7.68231 7.68231 7.2936 8.17182 7.25454L17.0236 6.54816C17.2334 6.53142 17.4326 6.44893 17.5927 6.31244L24.3514 0.552747Z" fill="#0047FF"/>
<path d="M25 16.6947L27.2664 21.2868L27.4409 21.6404L27.8311 21.6971L32.8988 22.4335L29.2318 26.008L28.9494 26.2832L29.0161 26.6719L29.8818 31.7192L25.349 29.3362L25 29.1527L24.651 29.3362L20.1182 31.7192L20.9839 26.6719L21.0506 26.2832L20.7682 26.008L17.1012 22.4335L22.1689 21.6971L22.5591 21.6404L22.7336 21.2868L25 16.6947Z" stroke="white" stroke-width="1.5"/>
</g>
<defs>
<clipPath id="clip0_7106_11231">
<rect width="130" height="50" fill="white"/>
</clipPath>
</defs>
</svg>

<svg width="130" height="50" viewBox="0 0 130 50" fill="none" xmlns="http://www.w3.org/2000/svg"><g clip-path="url(#clip0_7106_11231)"><path opacity=".4" d="M64.676.933a.5.5 0 01.648 0l6.759 5.76a1.5 1.5 0 00.854.354l8.851.706a.5.5 0 01.459.459l.706 8.851a1.5 1.5 0 00.354.854l5.76 6.759a.5.5 0 010 .648l-5.76 6.759a1.5 1.5 0 00-.354.854l-.706 8.851a.5.5 0 01-.459.459l-8.851.706a1.5 1.5 0 00-.854.354l-6.759 5.76a.5.5 0 01-.648 0l-6.759-5.76a1.5 1.5 0 00-.854-.354l-8.851-.706a.5.5 0 01-.459-.459l-.706-8.851a1.5 1.5 0 00-.354-.854l-5.76-6.759a.5.5 0 010-.648l5.76-6.759a1.5 1.5 0 00.354-.854l.706-8.851a.5.5 0 01.459-.459l8.851-.706a1.5 1.5 0 00.854-.354l6.759-5.76z" stroke="#2A2A2A"/><path opacity=".2" d="M104.676.933a.5.5 0 01.648 0l6.759 5.76a1.5 1.5 0 00.854.354l8.851.706a.5.5 0 01.459.459l.706 8.851c.026.315.149.614.354.854l5.76 6.759a.5.5 0 010 .648l-5.76 6.759c-.205.24-.328.539-.354.854l-.706 8.851a.5.5 0 01-.459.459l-8.851.706a1.5 1.5 0 00-.854.354l-6.759 5.76a.5.5 0 01-.648 0l-6.759-5.76a1.5 1.5 0 00-.854-.354l-8.851-.706a.5.5 0 01-.459-.459l-.706-8.851a1.5 1.5 0 00-.354-.854l-5.76-6.759a.5.5 0 010-.648l5.76-6.759a1.5 1.5 0 00.354-.854l.706-8.851a.5.5 0 01.459-.459l8.851-.706a1.5 1.5 0 00.854-.354l6.759-5.76z" stroke="#2A2A2A"/><path d="M24.351.553a1 1 0 011.298 0l6.758 5.76a1 1 0 00.57.235l8.851.707a1 1 0 01.917.917l.707 8.852a1 1 0 00.236.569l5.76 6.758a1 1 0 010 1.298l-5.76 6.758a1 1 0 00-.236.57l-.706 8.851a1 1 0 01-.918.917l-8.852.707a1 1 0 00-.569.236l-6.758 5.76a1 1 0 01-1.298 0l-6.758-5.76a1 1 0 00-.57-.236l-8.851-.706a1 1 0 01-.917-.918l-.707-8.852a1 1 0 00-.236-.569L.552 25.65a1 1 0 010-1.298l5.76-6.758a1 1 0 00.236-.57l.707-8.851a1 1 0 01.917-.917l8.852-.707a1 1 0 00.569-.236L24.35.552z" fill="#0047FF"/><path d="M25 16.695l2.266 4.592.175.353.39.057 5.068.736-3.667 3.575-.283.275.067.389.866 5.047-4.533-2.383-.349-.183-.349.183-4.533 2.383.866-5.047.067-.389-.283-.275-3.667-3.575 5.068-.736.39-.057.175-.353L25 16.695z" stroke="#fff" stroke-width="1.5"/></g><defs><clipPath id="clip0_7106_11231"><path fill="#fff" d="M0 0h130v50H0z"/></clipPath></defs></svg>
